images/icon/team/Group.svg

<svg width="20" height="18" viewBox="0 0 20 18" fill="none" xmlns="http://www.w3.org/2000/svg">
<path d="M20 2.79875C19.2563 3.125 18.4637 3.34125 17.6375 3.44625C18.4875 2.93875 19.1363 2.14125 19.4412 1.18C18.6488 1.6525 17.7738 1.98625 16.8412 2.1725C16.0887 1.37125 15.0162 0.875 13.8462 0.875C11.5763 0.875 9.74875 2.7175 9.74875 4.97625C9.74875 5.30125 9.77625 5.61375 9.84375 5.91125C6.435 5.745 3.41875 4.11125 1.3925 1.6225C1.03875 2.23625 0.83125 2.93875 0.83125 3.695C0.83125 5.115 1.5625 6.37375 2.6525 7.1025C1.99375 7.09 1.3475 6.89875 0.8 6.5975C0.8 6.61 0.8 6.62625 0.8 6.6425C0.8 8.635 2.22125 10.29 4.085 10.6712C3.75125 10.7625 3.3875 10.8062 3.01 10.8062C2.7475 10.8062 2.4825 10.7913 2.23375 10.7362C2.765 12.36 4.2725 13.5538 6.065 13.5925C4.67 14.6838 2.89875 15.3412 0.98125 15.3412C0.645 15.3412 0.3225 15.3263 0 15.285C1.81625 16.4563 3.96875 17.125 6.29 17.125C13.835 17.125 17.96 10.875 17.96 5.4575C17.96 5.27625 17.9538 5.10125 17.945 4.9275C18.7588 4.35 19.4425 3.62875 20 2.79875Z" fill="#AFB1B8"/>
</svg>

<svg xmlns="http://www.w3.org/2000/svg" fill="none" viewBox="0 0 20 18"><path fill="#AFB1B8" d="M20 2.799a8.549 8.549 0 0 1-2.363.647 4.077 4.077 0 0 0 1.804-2.266 8.192 8.192 0 0 1-2.6.992A4.099 4.099 0 0 0 9.75 4.976c0 .325.027.638.095.935-3.409-.166-6.425-1.8-8.451-4.288A4.128 4.128 0 0 0 .83 3.694c0 1.42.732 2.679 1.821 3.408A4.05 4.05 0 0 1 .8 6.598v.045a4.119 4.119 0 0 0 3.285 4.028 4.09 4.09 0 0 1-1.075.135c-.262 0-.527-.015-.776-.07.531 1.624 2.038 2.818 3.831 2.856a8.238 8.238 0 0 1-5.084 1.75A7.67 7.67 0 0 1 0 15.284a11.543 11.543 0 0 0 6.29 1.84c7.545 0 11.67-6.25 11.67-11.668 0-.18-.006-.356-.015-.53A8.179 8.179 0 0 0 20 2.8Z"/></svg>
